src/assets/images/illustration/graduation-hat.svg

<svg height="512" viewBox="0 0 512 512" width="512" xmlns="http://www.w3.org/2000/svg"><path d="m295.507 377.577c-7.847 7.195-17.523 16.159-21.165 17.706-3.678-1.5-13.438-10.545-21.351-17.766-25.912-23.646-65.07-59.517-107.029-59.517h-2.962v-56.226l-20-8.328v84.554h2.962c41.959 0 81.117 35.871 107.029 59.517 7.913 7.221 17.673 16.265 21.351 17.766 3.642-1.547 13.318-10.511 21.165-17.706 25.793-23.651 64.772-59.577 105.656-59.577h4.837v-18.42c-35.224 7.178-67.912 37.291-90.493 57.997z" fill="#d4e1f4"/><path d="m453.773 199.64-159.754 66.517c-9.6 4-26.439 4-36.037 0l-179.755-74.845-28.828 12a13.725 13.725 0 0 0 -3.772 2.162 13.763 13.763 0 0 0 3.772 2.16l188.583 78.52c9.6 4 26.438 4 36.037 0l188.581-78.517a13.763 13.763 0 0 0 3.772-2.16 13.72 13.72 0 0 0 -3.773-2.162z" fill="#d4e1f4"/><path d="m445 215.907a7 7 0 0 0 -7 7v128.482a7 7 0 0 0 14 0v-128.482a7 7 0 0 0 -7-7z" fill="#2f55d4"/><path d="m393 238a7 7 0 0 0 -7 7v93h-4.837c-40.884 0-79.863 35.926-105.656 59.577-7.847 7.195-17.523 16.159-21.165 17.706-3.678-1.5-13.438-10.545-21.351-17.766-25.912-23.646-65.07-59.517-107.029-59.517h-2.962v-94a7 7 0 1 0 -14 0v101.365a6.7 6.7 0 0 0 7 6.635h9.962c36.532 0 73.277 33.715 97.592 55.9 16.269 14.848 23.76 21.5 30.82 21.5 6.943 0 14.4-6.7 30.594-21.556 24.195-22.186 60.758-55.85 96.2-55.85h11.832a6.7 6.7 0 0 0 7-6.635v-100.359a7 7 0 0 0 -7-7z" fill="#2f55d4"/><g fill="#2eca8b"><path d="m480.834 205.477c0-3.635-1.67-10.429-12.852-15.085l-188.582-78.52c-13.121-5.463-33.677-5.463-46.8 0l-188.582 78.52c-11.182 4.656-12.851 11.45-12.851 15.085s1.67 10.428 12.851 15.083l188.582 78.521c6.56 2.731 14.98 4.1 23.4 4.1s16.839-1.367 23.4-4.1l188.581-78.521c11.182-4.655 12.852-11.448 12.853-15.083zm-18.233 2.16-188.582 78.52c-9.6 4-26.439 4-36.037 0l-188.582-78.52a13.763 13.763 0 0 1 -3.772-2.16 13.725 13.725 0 0 1 3.772-2.162l188.581-78.515c9.6-4 26.439-4 36.037 0l188.582 78.515a13.72 13.72 0 0 1 3.773 2.162 13.763 13.763 0 0 1 -3.773 2.16z"/><path d="m444.752 345.218a37.115 37.115 0 1 0 37 37.116 37.1 37.1 0 0 0 -37-37.116zm0 60.23a23.115 23.115 0 1 1 23-23.114 23.085 23.085 0 0 1 -23 23.114z"/></g></svg>

<?xml version="1.0"?>
<svg xmlns="http://www.w3.org/2000/svg" id="Layer_1" data-name="Layer 1" viewBox="0 0 512 512" width="512" height="512"><title>graduation hat 02</title><path d="M295.507,377.577c-7.847,7.195-17.523,16.159-21.165,17.706-3.678-1.5-13.438-10.545-21.351-17.766C227.079,353.871,187.921,318,145.962,318H143V261.774l-20-8.328V338h2.962c41.959,0,81.117,35.871,107.029,59.517,7.913,7.221,17.673,16.265,21.351,17.766,3.642-1.547,13.318-10.511,21.165-17.706C301.3,373.926,340.279,338,381.163,338H386V319.58C350.776,326.758,318.088,356.871,295.507,377.577Z" style="fill:#d4e1f4"/><path d="M453.773,199.64,294.019,266.157c-9.6,4-26.439,4-36.037,0L78.227,191.312l-28.828,12a13.725,13.725,0,0,0-3.772,2.162,13.763,13.763,0,0,0,3.772,2.16l188.583,78.52c9.6,4,26.438,4,36.037,0L462.6,207.637a13.763,13.763,0,0,0,3.772-2.16,13.72,13.72,0,0,0-3.773-2.162Z" style="fill:#d4e1f4"/><path d="M445,215.907a7,7,0,0,0-7,7V351.389a7,7,0,0,0,14,0V222.907A7,7,0,0,0,445,215.907Z" style="fill:#2f55d4"/><path d="M393,238a7,7,0,0,0-7,7v93h-4.837c-40.884,0-79.863,35.926-105.656,59.577-7.847,7.195-17.523,16.159-21.165,17.706-3.678-1.5-13.438-10.545-21.351-17.766C207.079,373.871,167.921,338,125.962,338H123V244a7,7,0,1,0-14,0V345.365A6.7,6.7,0,0,0,116,352h9.962c36.532,0,73.277,33.715,97.592,55.9,16.269,14.848,23.76,21.5,30.82,21.5,6.943,0,14.4-6.7,30.594-21.556,24.195-22.186,60.758-55.85,96.2-55.85H393a6.7,6.7,0,0,0,7-6.635V245A7,7,0,0,0,393,238Z" style="fill:#2f55d4"/><path d="M480.834,205.477c0-3.635-1.67-10.429-12.852-15.085L279.4,111.872c-13.121-5.463-33.677-5.463-46.8,0L44.018,190.392c-11.182,4.656-12.851,11.45-12.851,15.085s1.67,10.428,12.851,15.083L232.6,299.081c6.56,2.731,14.98,4.1,23.4,4.1s16.839-1.367,23.4-4.1L467.981,220.56C479.163,215.905,480.833,209.112,480.834,205.477Zm-18.233,2.16-188.582,78.52c-9.6,4-26.439,4-36.037,0L49.4,207.637a13.763,13.763,0,0,1-3.772-2.16,13.725,13.725,0,0,1,3.772-2.162L237.981,124.8c9.6-4,26.439-4,36.037,0L462.6,203.315a13.72,13.72,0,0,1,3.773,2.162A13.763,13.763,0,0,1,462.6,207.637Z" style="fill:#2eca8b"/><path d="M444.752,345.218a37.115,37.115,0,1,0,37,37.116A37.1,37.1,0,0,0,444.752,345.218Zm0,60.23a23.115,23.115,0,1,1,23-23.114A23.085,23.085,0,0,1,444.752,405.448Z" style="fill:#2eca8b"/></svg>
